X:339
T:Spike Island Lasses
Z: id:dc-reel-316
M:C
L:1/8
K:D Mixolydian
d|cAGB ADDE|FDAD FGAd|cAGB AGFG|[1 Adde fde:|[2 Add^c d3|]!
e|f2df efge|fded cAA2|f2df edcA|Add^c defg|!
agfa gfe^c|dfed cAAG|Add^c defd|Adde fde|]!
d|cAGB A3d|BAGB A2dB|cAGB AGFG|Adde fded|!
cAGB A3d|BAGB A2dB|cAGB ADD2|Add^c d3|]!
e|fdad fdad|fdaf gee2|fdad fdad|fgfe dcA2|!
defg a3f|bfaf gfeg|fedf edcA|d^cde fde|]!

